X: 7
T: Rolling In The Ryegrass
R: reel
M: 4/4
L: 1/8
K: Dmaj
~A3"1st rnd" F dFAF|.G2BG dGBG|FAAF dFAF|GBAF EF.D2|ABAF DFAF|.G2BG DGBG|FAAF .D2AF|GBAF EF.D2|ABde ~f3a|~g3e {g}fedB|ABde .f2df|afdf efd2|ABde ~f3a|.g2 ge {g}fedB|ABde .f2df|afdf efd2|~A3"2nd round" F DFAF|.G2BG DGBG|FAAF .D2AF|GBAF EF.D2|FAAF DFAF|GAAG D2BG|FAAF .D2AF|GBAF EFD2|ABde ~f3a|~g3e {g}fedB|ABde .f2df|afdf ef.d2|ABde ~f3d|.g2 ge fedB|ABde .f2df|afdf ef.d2|"3rd round" ABAF DFAF|GABG DGBG|FAAF DFAF|GBAF EF.D2|~A3 F DFAF|.G ~b3 .a2 zG|FAAF DFAF|GBAF EFD2|ABde .f2fa|~g3e {g}fedB|ABde .f2df|afdf efd2|ABde ~f3d|.g2 ge {g}fedB|ABde .f2df|afdf efd2|~A3"4th round" F DFAF|.G2BG DGBG|FAAF DFAF|GBAF EF.D2|ABAF DFAF|G ~B3 .B2 BG|DFAF DFAF|GBAF EF.D2|ABde ~f3a|~g3e {g}fedB|ABde .f2df|afdf ef.d2|ABde .f2fa|~g3 e {g}fedB|ABde .f2df|afdf efd2||


Tune 87	Setting 12609

